X:275
T: Tansey's Fancy
S: "Music from Ireland 3" (Bulmer & Sharpley)
Z: B.Black
R: jig
M: 6/8
L: 1/8
K: G
A|BAB AGA|BdB BAG|B3 dcB|AFA DFA|
BGB AFA|GBd g3|edc BcA|AGF G2 :|
B|dcB gdB|GBd gdB|cAc ecA|GBd gdc|
BAB AGA|GBd gfg|edc BcA|AGF G2 :|
